X:1
T:Go Down, Moses
M:4/4
L:1/4
K:Bb
 D| B B A A| B/2 B3/2 G2| D D ^F/2 F3/2| G3 D| B B A A| B/2 B3/2 G2|\
 D D F/2 F3/2| G3 z| G/2 G/2- G3| c/2 c/2- c3| d2 d3/2 c/2| dd/2-c/2 B/2- G3/2|\
 B- G2 B|G/2-F/2D/2-C/2 D2| D D ^F/2 F3/2| G3 z|
